img/icons/electronic/laptop.svg

<svg xmlns="http://www.w3.org/2000/svg" viewBox="0 0 48 38"><defs><style>.cls-1{fill:#231f20}</style></defs><g id="Layer_2" data-name="Layer 2"><g id="Icons"><g id="Device_Electronic" data-name="Device / Electronic"><g id="Laptop"><path class="cls-1" d="M44 24.72V5a5 5 0 00-5-5H9a5 5 0 00-5 5v19.76l-4 8V38h48v-5.23zM6 5a3 3 0 013-3h30a3 3 0 013 3v19H6zm40 31H2v-2.76L5.62 26H42.4l3.6 7.23z"/><path class="cls-1" d="M18 32h12v2H18z"/></g></g></g></g></svg>

<svg xmlns="http://www.w3.org/2000/svg" viewBox="0 0 48 38"><defs><style>.cls-1{fill:#231f20;}</style></defs><title>Laptop</title><g id="Layer_2" data-name="Layer 2"><g id="Icons"><g id="Device_Electronic" data-name="Device / Electronic"><g id="Laptop"><path class="cls-1" d="M44,24.72V5a5,5,0,0,0-5-5H9A5,5,0,0,0,4,5V24.76l-4,8V38H48V32.77ZM6,5A3,3,0,0,1,9,2H39a3,3,0,0,1,3,3V24H6ZM46,36H2V33.24L5.62,26H42.4L46,33.23Z"/><rect class="cls-1" x="18" y="32" width="12" height="2"/></g></g></g></g></svg>
